X: 1118
T: The Green Forest
B: max new tunes
B: steve tunes
M:6/8
Q: 3/8=100
K:Gmajor
V:1 
|:g|"G"dBG GBG|GB/c/d "C"efg|"G"dBG GB/c/d|"C"ecA "D"ABc|
"G" dBG "Em"E2G|"G"DGG "C"ABc|"G"ded "D"cBA|1 "G"BGF G2:|2 "G"BGF GBd||
 |:"G"gfg GBd|~g3 "Em"bge|"G"gfg GB/c/d|"Am"ecA "D"AB/c/d|
 "G"gfe d^cd|"C"cBc ABc|"D"ded cBA|1 "G"BGF GBd:|2 "G"BGF G3||
% abcbook-tune_id 62b5b3cc7d5e143e92bfc071


% abcbook-boost 6
% abcbook-tablature 
% abcbook-transpose 
% abcbook-lastupdated 1658312488296
% abcbook-soundfonts 
% abcbook-repeats 3


